images/16757956.svg

<?xml version="1.0" encoding="UTF-8"?>
<svg xmlns="http://www.w3.org/2000/svg" xmlns:xlink="http://www.w3.org/1999/xlink" width="300pt" height="300pt" viewBox="0 0 300 300" version="1.1">
<defs>
<g>
<symbol overflow="visible" id="glyph0-0">
<path style="stroke:none;" d="M 0.453125 1.59375 L 0.453125 -6.34375 L 4.953125 -6.34375 L 4.953125 1.59375 Z M 0.953125 1.09375 L 4.453125 1.09375 L 4.453125 -5.84375 L 0.953125 -5.84375 Z M 0.953125 1.09375 "/>
</symbol>
<symbol overflow="visible" id="glyph0-1">
<path style="stroke:none;" d="M 3.546875 -5.953125 C 2.898438 -5.953125 2.382812 -5.710938 2 -5.234375 C 1.625 -4.753906 1.4375 -4.101562 1.4375 -3.28125 C 1.4375 -2.445312 1.625 -1.789062 2 -1.3125 C 2.382812 -0.832031 2.898438 -0.59375 3.546875 -0.59375 C 4.191406 -0.59375 4.703125 -0.832031 5.078125 -1.3125 C 5.453125 -1.789062 5.640625 -2.445312 5.640625 -3.28125 C 5.640625 -4.101562 5.453125 -4.753906 5.078125 -5.234375 C 4.703125 -5.710938 4.191406 -5.953125 3.546875 -5.953125 Z M 3.546875 -6.6875 C 4.460938 -6.6875 5.195312 -6.375 5.75 -5.75 C 6.300781 -5.132812 6.578125 -4.3125 6.578125 -3.28125 C 6.578125 -2.238281 6.300781 -1.410156 5.75 -0.796875 C 5.195312 -0.179688 4.460938 0.125 3.546875 0.125 C 2.617188 0.125 1.878906 -0.179688 1.328125 -0.796875 C 0.773438 -1.410156 0.5 -2.238281 0.5 -3.28125 C 0.5 -4.3125 0.773438 -5.132812 1.328125 -5.75 C 1.878906 -6.375 2.617188 -6.6875 3.546875 -6.6875 Z M 3.546875 -6.6875 "/>
</symbol>
</g>
</defs>
<g id="surface30929">
<rect x="0" y="0" width="300" height="300" style="fill:rgb(100%,100%,100%);fill-opacity:1;stroke:none;"/>
<path style="fill:none;stroke-width:1.2;stroke-linecap:butt;stroke-linejoin:miter;stroke:rgb(0%,0%,0%);stroke-opacity:1;stroke-miterlimit:10;" d="M 135.960938 75.90625 L 146.234375 95.820312 "/>
<path style="fill:none;stroke-width:1.2;stroke-linecap:butt;stroke-linejoin:miter;stroke:rgb(0%,0%,0%);stroke-opacity:1;stroke-miterlimit:10;" d="M 146.113281 98.453125 L 157.300781 98.980469 "/>
<path style="fill:none;stroke-width:1.2;stroke-linecap:butt;stroke-linejoin:miter;stroke:rgb(100%,0%,0%);stroke-opacity:1;stroke-miterlimit:10;" d="M 157.300781 98.980469 L 168.492188 99.511719 "/>
<path style="fill:none;stroke-width:1.2;stroke-linecap:butt;stroke-linejoin:miter;stroke:rgb(0%,0%,0%);stroke-opacity:1;stroke-miterlimit:10;" d="M 146.359375 93.183594 L 157.550781 93.714844 "/>
<path style="fill:none;stroke-width:1.2;stroke-linecap:butt;stroke-linejoin:miter;stroke:rgb(100%,0%,0%);stroke-opacity:1;stroke-miterlimit:10;" d="M 157.550781 93.714844 L 168.742188 94.246094 "/>
<path style="fill:none;stroke-width:1.2;stroke-linecap:butt;stroke-linejoin:miter;stroke:rgb(0%,0%,0%);stroke-opacity:1;stroke-miterlimit:10;" d="M 146.234375 95.820312 L 140.183594 105.246094 "/>
<path style="fill:none;stroke-width:1.2;stroke-linecap:butt;stroke-linejoin:miter;stroke:rgb(100%,0%,0%);stroke-opacity:1;stroke-miterlimit:10;" d="M 140.183594 105.246094 L 134.128906 114.671875 "/>
<path style=" stroke:none;fill-rule:nonzero;fill:rgb(100%,100%,100%);fill-opacity:1;" d="M 164.617188 91.378906 L 172.617188 91.378906 L 172.617188 102.378906 L 164.617188 102.378906 Z M 164.617188 91.378906 "/>
<g style="fill:rgb(100%,0%,0%);fill-opacity:1;">
  <use xlink:href="#glyph0-1" x="164.617188" y="100.041992"/>
</g>
<path style="fill:none;stroke-width:1.2;stroke-linecap:butt;stroke-linejoin:miter;stroke:rgb(100%,0%,0%);stroke-opacity:1;stroke-miterlimit:10;" d="M 134.128906 114.671875 L 139.265625 124.628906 "/>
<path style="fill:none;stroke-width:1.2;stroke-linecap:butt;stroke-linejoin:miter;stroke:rgb(0%,0%,0%);stroke-opacity:1;stroke-miterlimit:10;" d="M 139.265625 124.628906 L 144.402344 134.585938 "/>
<path style=" stroke:none;fill-rule:nonzero;fill:rgb(100%,100%,100%);fill-opacity:1;" d="M 130.128906 109.171875 L 138.128906 109.171875 L 138.128906 120.171875 L 130.128906 120.171875 Z M 130.128906 109.171875 "/>
<g style="fill:rgb(100%,0%,0%);fill-opacity:1;">
  <use xlink:href="#glyph0-1" x="130.128906" y="117.834961"/>
</g>
<path style="fill:none;stroke-width:1.2;stroke-linecap:butt;stroke-linejoin:miter;stroke:rgb(0%,0%,0%);stroke-opacity:1;stroke-miterlimit:10;" d="M 144.402344 134.585938 L 166.78125 135.644531 "/>
<path style="fill:none;stroke-width:1.2;stroke-linecap:butt;stroke-linejoin:miter;stroke:rgb(0%,0%,0%);stroke-opacity:1;stroke-miterlimit:10;" d="M 132.292969 153.4375 L 144.402344 134.585938 "/>
<path style="fill:none;stroke-width:1.2;stroke-linecap:butt;stroke-linejoin:miter;stroke:rgb(0%,0%,0%);stroke-opacity:1;stroke-miterlimit:10;" d="M 166.78125 135.644531 L 177.054688 155.558594 "/>
<path style="fill:none;stroke-width:1.2;stroke-linecap:butt;stroke-linejoin:miter;stroke:rgb(0%,0%,0%);stroke-opacity:1;stroke-miterlimit:10;" d="M 177.054688 155.558594 L 164.949219 174.414062 "/>
<path style="fill:none;stroke-width:1.2;stroke-linecap:butt;stroke-linejoin:miter;stroke:rgb(0%,0%,0%);stroke-opacity:1;stroke-miterlimit:10;" d="M 199.4375 156.617188 L 177.054688 155.558594 "/>
<path style="fill:none;stroke-width:1.2;stroke-linecap:butt;stroke-linejoin:miter;stroke:rgb(0%,0%,0%);stroke-opacity:1;stroke-miterlimit:10;" d="M 164.949219 174.414062 L 175.222656 194.324219 "/>
<path style="fill:none;stroke-width:1.2;stroke-linecap:butt;stroke-linejoin:miter;stroke:rgb(0%,0%,0%);stroke-opacity:1;stroke-miterlimit:10;" d="M 164.949219 174.414062 L 142.566406 173.351562 "/>
<path style="fill:none;stroke-width:1;stroke-linecap:butt;stroke-linejoin:miter;stroke:rgb(0%,0%,0%);stroke-opacity:1;stroke-miterlimit:10;" d="M 164.949219 174.414062 L 164.949219 174.414062 M 162.914062 176.617188 L 163.789062 177.179688 M 160.878906 178.820312 L 162.632812 179.949219 M 158.84375 181.023438 L 161.472656 182.714844 M 156.808594 183.230469 L 160.316406 185.484375 M 154.773438 185.433594 L 159.160156 188.25 M 152.738281 187.636719 L 158 191.019531 M 150.703125 189.839844 L 156.84375 193.785156 M 149.511719 191.128906 L 156.167969 195.402344 "/>
<path style="fill:none;stroke-width:1.2;stroke-linecap:butt;stroke-linejoin:miter;stroke:rgb(0%,0%,0%);stroke-opacity:1;stroke-miterlimit:10;" d="M 175.222656 194.324219 L 197.601562 195.386719 "/>
<path style="fill:none;stroke-width:1.2;stroke-linecap:butt;stroke-linejoin:miter;stroke:rgb(0%,0%,0%);stroke-opacity:1;stroke-miterlimit:10;" d="M 177.707031 189.164062 L 195.613281 190.011719 "/>
<path style="fill:none;stroke-width:1.2;stroke-linecap:butt;stroke-linejoin:miter;stroke:rgb(0%,0%,0%);stroke-opacity:1;stroke-miterlimit:10;" d="M 197.601562 195.386719 L 209.710938 176.53125 "/>
<path style="fill:none;stroke-width:1.2;stroke-linecap:butt;stroke-linejoin:miter;stroke:rgb(0%,0%,0%);stroke-opacity:1;stroke-miterlimit:10;" d="M 209.710938 176.53125 L 199.4375 156.617188 "/>
<path style="fill:none;stroke-width:1.2;stroke-linecap:butt;stroke-linejoin:miter;stroke:rgb(0%,0%,0%);stroke-opacity:1;stroke-miterlimit:10;" d="M 209.710938 176.53125 L 220.902344 177.0625 "/>
<path style="fill:none;stroke-width:1.2;stroke-linecap:butt;stroke-linejoin:miter;stroke:rgb(100%,0%,0%);stroke-opacity:1;stroke-miterlimit:10;" d="M 220.902344 177.0625 L 232.09375 177.589844 "/>
<path style="fill:none;stroke-width:1.2;stroke-linecap:butt;stroke-linejoin:miter;stroke:rgb(0%,0%,0%);stroke-opacity:1;stroke-miterlimit:10;" d="M 199.4375 156.617188 L 196.59375 134.390625 "/>
<path style="fill:none;stroke-width:1.2;stroke-linecap:butt;stroke-linejoin:miter;stroke:rgb(0%,0%,0%);stroke-opacity:1;stroke-miterlimit:10;" d="M 199.4375 156.617188 L 220.832031 149.957031 "/>
<path style="fill:none;stroke-width:1.2;stroke-linecap:butt;stroke-linejoin:miter;stroke:rgb(100%,0%,0%);stroke-opacity:1;stroke-miterlimit:10;" d="M 232.09375 177.589844 L 237.230469 187.546875 "/>
<path style="fill:none;stroke-width:1.2;stroke-linecap:butt;stroke-linejoin:miter;stroke:rgb(0%,0%,0%);stroke-opacity:1;stroke-miterlimit:10;" d="M 237.230469 187.546875 L 242.367188 197.503906 "/>
<path style=" stroke:none;fill-rule:nonzero;fill:rgb(100%,100%,100%);fill-opacity:1;" d="M 228.09375 172.089844 L 236.09375 172.089844 L 236.09375 183.089844 L 228.09375 183.089844 Z M 228.09375 172.089844 "/>
<g style="fill:rgb(100%,0%,0%);fill-opacity:1;">
  <use xlink:href="#glyph0-1" x="228.09375" y="180.75293"/>
</g>
<path style="fill:none;stroke-width:1.2;stroke-linecap:butt;stroke-linejoin:miter;stroke:rgb(0%,0%,0%);stroke-opacity:1;stroke-miterlimit:10;" d="M 240.148438 196.078125 L 234.09375 205.507812 "/>
<path style="fill:none;stroke-width:1.2;stroke-linecap:butt;stroke-linejoin:miter;stroke:rgb(100%,0%,0%);stroke-opacity:1;stroke-miterlimit:10;" d="M 234.09375 205.507812 L 228.039062 214.933594 "/>
<path style="fill:none;stroke-width:1.2;stroke-linecap:butt;stroke-linejoin:miter;stroke:rgb(0%,0%,0%);stroke-opacity:1;stroke-miterlimit:10;" d="M 244.585938 198.929688 L 238.53125 208.355469 "/>
<path style="fill:none;stroke-width:1.2;stroke-linecap:butt;stroke-linejoin:miter;stroke:rgb(100%,0%,0%);stroke-opacity:1;stroke-miterlimit:10;" d="M 238.53125 208.355469 L 232.476562 217.78125 "/>
<path style="fill:none;stroke-width:1.2;stroke-linecap:butt;stroke-linejoin:miter;stroke:rgb(0%,0%,0%);stroke-opacity:1;stroke-miterlimit:10;" d="M 242.367188 197.503906 L 264.75 198.5625 "/>
<path style=" stroke:none;fill-rule:nonzero;fill:rgb(100%,100%,100%);fill-opacity:1;" d="M 222.257812 210.859375 L 230.257812 210.859375 L 230.257812 221.859375 L 222.257812 221.859375 Z M 222.257812 210.859375 "/>
<g style="fill:rgb(100%,0%,0%);fill-opacity:1;">
  <use xlink:href="#glyph0-1" x="222.257812" y="219.522461"/>
</g>
<path style="fill:none;stroke-width:1.2;stroke-linecap:butt;stroke-linejoin:miter;stroke:rgb(0%,0%,0%);stroke-opacity:1;stroke-miterlimit:10;" d="M 142.566406 173.351562 L 132.292969 153.4375 "/>
<path style="fill:none;stroke-width:1.2;stroke-linecap:butt;stroke-linejoin:miter;stroke:rgb(0%,0%,0%);stroke-opacity:1;stroke-miterlimit:10;" d="M 130.457031 192.207031 L 142.566406 173.351562 "/>
<path style="fill:none;stroke-width:1.2;stroke-linecap:butt;stroke-linejoin:miter;stroke:rgb(0%,0%,0%);stroke-opacity:1;stroke-miterlimit:10;" d="M 132.292969 153.4375 L 109.910156 152.378906 "/>
<path style=" stroke:none;fill-rule:nonzero;fill:rgb(0%,0%,0%);fill-opacity:1;" d="M 132.292969 153.4375 L 125.53125 131.714844 L 118.503906 135.339844 Z M 132.292969 153.4375 "/>
<path style="fill:none;stroke-width:1.2;stroke-linecap:butt;stroke-linejoin:miter;stroke:rgb(0%,0%,0%);stroke-opacity:1;stroke-miterlimit:10;" d="M 109.910156 152.378906 L 99.636719 132.464844 "/>
<path style="fill:none;stroke-width:1.2;stroke-linecap:butt;stroke-linejoin:miter;stroke:rgb(0%,0%,0%);stroke-opacity:1;stroke-miterlimit:10;" d="M 104.195312 152.804688 L 95.976562 136.875 "/>
<path style="fill:none;stroke-width:1.2;stroke-linecap:butt;stroke-linejoin:miter;stroke:rgb(0%,0%,0%);stroke-opacity:1;stroke-miterlimit:10;" d="M 97.800781 171.234375 L 109.910156 152.378906 "/>
<path style="fill:none;stroke-width:1.2;stroke-linecap:butt;stroke-linejoin:miter;stroke:rgb(0%,0%,0%);stroke-opacity:1;stroke-miterlimit:10;" d="M 99.636719 132.464844 L 77.253906 131.40625 "/>
<path style="fill:none;stroke-width:1.2;stroke-linecap:butt;stroke-linejoin:miter;stroke:rgb(0%,0%,0%);stroke-opacity:1;stroke-miterlimit:10;" d="M 79.597656 130.199219 L 74.460938 120.242188 "/>
<path style="fill:none;stroke-width:1.2;stroke-linecap:butt;stroke-linejoin:miter;stroke:rgb(100%,0%,0%);stroke-opacity:1;stroke-miterlimit:10;" d="M 74.460938 120.242188 L 69.324219 110.285156 "/>
<path style="fill:none;stroke-width:1.2;stroke-linecap:butt;stroke-linejoin:miter;stroke:rgb(0%,0%,0%);stroke-opacity:1;stroke-miterlimit:10;" d="M 74.910156 132.617188 L 69.773438 122.660156 "/>
<path style="fill:none;stroke-width:1.2;stroke-linecap:butt;stroke-linejoin:miter;stroke:rgb(100%,0%,0%);stroke-opacity:1;stroke-miterlimit:10;" d="M 69.773438 122.660156 L 64.636719 112.703125 "/>
<path style="fill:none;stroke-width:1.2;stroke-linecap:butt;stroke-linejoin:miter;stroke:rgb(0%,0%,0%);stroke-opacity:1;stroke-miterlimit:10;" d="M 77.253906 131.40625 L 71.199219 140.832031 "/>
<path style="fill:none;stroke-width:1.2;stroke-linecap:butt;stroke-linejoin:miter;stroke:rgb(100%,0%,0%);stroke-opacity:1;stroke-miterlimit:10;" d="M 71.199219 140.832031 L 65.144531 150.261719 "/>
<path style=" stroke:none;fill-rule:nonzero;fill:rgb(100%,100%,100%);fill-opacity:1;" d="M 58.980469 105.992188 L 66.980469 105.992188 L 66.980469 116.992188 L 58.980469 116.992188 Z M 58.980469 105.992188 "/>
<g style="fill:rgb(100%,0%,0%);fill-opacity:1;">
  <use xlink:href="#glyph0-1" x="58.980469" y="114.655273"/>
</g>
<path style="fill:none;stroke-width:1.2;stroke-linecap:butt;stroke-linejoin:miter;stroke:rgb(100%,0%,0%);stroke-opacity:1;stroke-miterlimit:10;" d="M 65.144531 150.261719 L 70.28125 160.21875 "/>
<path style="fill:none;stroke-width:1.2;stroke-linecap:butt;stroke-linejoin:miter;stroke:rgb(0%,0%,0%);stroke-opacity:1;stroke-miterlimit:10;" d="M 70.28125 160.21875 L 75.417969 170.175781 "/>
<path style=" stroke:none;fill-rule:nonzero;fill:rgb(100%,100%,100%);fill-opacity:1;" d="M 61.144531 144.761719 L 69.144531 144.761719 L 69.144531 155.761719 L 61.144531 155.761719 Z M 61.144531 144.761719 "/>
<g style="fill:rgb(100%,0%,0%);fill-opacity:1;">
  <use xlink:href="#glyph0-1" x="61.144531" y="153.424805"/>
</g>
<path style="fill:none;stroke-width:1.2;stroke-linecap:butt;stroke-linejoin:miter;stroke:rgb(0%,0%,0%);stroke-opacity:1;stroke-miterlimit:10;" d="M 75.417969 170.175781 L 97.800781 171.234375 "/>
<path style="fill:none;stroke-width:1.2;stroke-linecap:butt;stroke-linejoin:miter;stroke:rgb(0%,0%,0%);stroke-opacity:1;stroke-miterlimit:10;" d="M 75.417969 170.175781 L 63.308594 189.027344 "/>
<path style="fill:none;stroke-width:1.2;stroke-linecap:butt;stroke-linejoin:miter;stroke:rgb(0%,0%,0%);stroke-opacity:1;stroke-miterlimit:10;" d="M 97.800781 171.234375 L 108.074219 191.148438 "/>
<path style="fill:none;stroke-width:1;stroke-linecap:butt;stroke-linejoin:miter;stroke:rgb(0%,0%,0%);stroke-opacity:1;stroke-miterlimit:10;" d="M 97.800781 171.234375 L 97.800781 171.234375 M 95.765625 173.4375 L 96.644531 174 M 93.730469 175.640625 L 95.484375 176.769531 M 91.695312 177.847656 L 94.328125 179.535156 M 89.660156 180.050781 L 93.167969 182.304688 M 87.625 182.253906 L 92.011719 185.070312 M 85.589844 184.457031 L 90.855469 187.839844 M 83.554688 186.660156 L 89.695312 190.605469 M 82.367188 187.949219 L 89.019531 192.222656 "/>
<path style="fill:none;stroke-width:1.2;stroke-linecap:butt;stroke-linejoin:miter;stroke:rgb(0%,0%,0%);stroke-opacity:1;stroke-miterlimit:10;" d="M 108.074219 191.148438 L 130.457031 192.207031 "/>
<path style="fill:none;stroke-width:1.2;stroke-linecap:butt;stroke-linejoin:miter;stroke:rgb(0%,0%,0%);stroke-opacity:1;stroke-miterlimit:10;" d="M 63.308594 189.027344 L 71.445312 209.90625 "/>
<path style="fill:none;stroke-width:1.2;stroke-linecap:butt;stroke-linejoin:miter;stroke:rgb(0%,0%,0%);stroke-opacity:1;stroke-miterlimit:10;" d="M 59.210938 193.03125 L 65.71875 209.730469 "/>
<path style="fill:none;stroke-width:1.2;stroke-linecap:butt;stroke-linejoin:miter;stroke:rgb(0%,0%,0%);stroke-opacity:1;stroke-miterlimit:10;" d="M 40.941406 190.3125 L 63.308594 189.027344 "/>
<path style="fill:none;stroke-width:1.2;stroke-linecap:butt;stroke-linejoin:miter;stroke:rgb(0%,0%,0%);stroke-opacity:1;stroke-miterlimit:10;" d="M 71.445312 209.90625 L 62.773438 217 "/>
<path style="fill:none;stroke-width:1.2;stroke-linecap:butt;stroke-linejoin:miter;stroke:rgb(100%,0%,0%);stroke-opacity:1;stroke-miterlimit:10;" d="M 62.773438 217 L 54.105469 224.09375 "/>
<path style="fill:none;stroke-width:1.2;stroke-linecap:butt;stroke-linejoin:miter;stroke:rgb(100%,0%,0%);stroke-opacity:1;stroke-miterlimit:10;" d="M 54.105469 224.09375 L 44.675781 218.039062 "/>
<path style="fill:none;stroke-width:1.2;stroke-linecap:butt;stroke-linejoin:miter;stroke:rgb(0%,0%,0%);stroke-opacity:1;stroke-miterlimit:10;" d="M 44.675781 218.039062 L 35.25 211.984375 "/>
<path style=" stroke:none;fill-rule:nonzero;fill:rgb(100%,100%,100%);fill-opacity:1;" d="M 50.105469 218.59375 L 58.105469 218.59375 L 58.105469 229.59375 L 50.105469 229.59375 Z M 50.105469 218.59375 "/>
<g style="fill:rgb(100%,0%,0%);fill-opacity:1;">
  <use xlink:href="#glyph0-1" x="50.105469" y="227.256836"/>
</g>
<path style="fill:none;stroke-width:1.2;stroke-linecap:butt;stroke-linejoin:miter;stroke:rgb(0%,0%,0%);stroke-opacity:1;stroke-miterlimit:10;" d="M 35.25 211.984375 L 40.941406 190.3125 "/>
<path style="fill:none;stroke-width:1.2;stroke-linecap:butt;stroke-linejoin:miter;stroke:rgb(0%,0%,0%);stroke-opacity:1;stroke-miterlimit:10;" d="M 40.917969 211.15625 L 45.46875 193.820312 "/>
</g>
</svg>

<svg xmlns="http://www.w3.org/2000/svg" xmlns:xlink="http://www.w3.org/1999/xlink" width="300pt" height="300pt" viewBox="0 0 300 300"><defs><symbol overflow="visible"><path d="M.453 1.594v-7.938h4.5v7.938zm.5-.5h3.5v-6.938h-3.5zm0 0"/></symbol><symbol overflow="visible" id="a"><path d="M3.547-5.953c-.65 0-1.164.242-1.547.72-.375.48-.563 1.13-.563 1.952 0 .835.188 1.49.563 1.967.383.48.898.72 1.547.72.644 0 1.156-.24 1.53-.72.376-.476.564-1.132.564-1.968 0-.822-.187-1.474-.562-1.954-.375-.477-.887-.72-1.53-.72zm0-.734c.914 0 1.648.312 2.203.937.55.617.828 1.438.828 2.47 0 1.042-.277 1.87-.828 2.483-.555.617-1.29.922-2.203.922-.93 0-1.668-.305-2.22-.922C.774-1.41.5-2.237.5-3.28c0-1.033.273-1.853.828-2.47.55-.625 1.29-.938 2.22-.938zm0 0"/></symbol></defs><g><path fill="#fff" d="M0 0h300v300H0z"/><path d="M135.96 75.906l10.274 19.914M146.113 98.453l11.188.527" stroke-width="1.2" stroke="#000" stroke-miterlimit="10" fill="none"/><path d="M157.3 98.98l11.192.532" stroke-width="1.2" stroke="#f00" stroke-miterlimit="10" fill="none"/><path d="M146.36 93.184l11.19.53" stroke-width="1.2" stroke="#000" stroke-miterlimit="10" fill="none"/><path d="M157.55 93.715l11.192.53" stroke-width="1.2" stroke="#f00" stroke-miterlimit="10" fill="none"/><path d="M146.234 95.82l-6.05 9.426" stroke-width="1.2" stroke="#000" stroke-miterlimit="10" fill="none"/><path d="M140.184 105.246l-6.055 9.426" stroke-width="1.2" stroke="#f00" stroke-miterlimit="10" fill="none"/><path d="M164.617 91.38h8v11h-8zm0 0" fill="#fff"/><use xlink:href="#a" x="164.617" y="100.042" fill="#f00"/><path d="M134.13 114.672l5.136 9.957" stroke-width="1.2" stroke="#f00" stroke-miterlimit="10" fill="none"/><path d="M139.266 124.63l5.136 9.956" stroke-width="1.2" stroke="#000" stroke-miterlimit="10" fill="none"/><path d="M130.13 109.172h8v11h-8zm0 0" fill="#fff"/><use xlink:href="#a" x="130.129" y="117.835" fill="#f00"/><path d="M144.402 134.586l22.38 1.06M132.293 153.438l12.11-18.852M166.78 135.645l10.275 19.914M177.055 155.56l-12.106 18.854M199.438 156.617l-22.383-1.058M164.95 174.414l10.273 19.91M164.95 174.414l-22.384-1.062" stroke-width="1.2" stroke="#000" stroke-miterlimit="10" fill="none"/><path d="M164.95 174.414m-2.036 2.203l.875.563m-2.91 1.64l1.753 1.13m-3.79 1.073l2.63 1.692m-4.664.515l3.506 2.254m-5.543-.05l4.387 2.816m-6.422-.613L158 191.02m-7.297-1.18l6.14 3.945m-7.33-2.656l6.655 4.272" stroke="#000" stroke-miterlimit="10" fill="none"/><path d="M175.223 194.324l22.38 1.063M177.707 189.164l17.906.848M197.602 195.387l12.11-18.856M209.71 176.53l-10.273-19.913M209.71 176.53l11.192.532" stroke-width="1.2" stroke="#000" stroke-miterlimit="10" fill="none"/><path d="M220.902 177.063l11.192.527" stroke-width="1.2" stroke="#f00" stroke-miterlimit="10" fill="none"/><path d="M199.438 156.617l-2.844-22.226M199.438 156.617l21.394-6.66" stroke-width="1.2" stroke="#000" stroke-miterlimit="10" fill="none"/><path d="M232.094 177.59l5.136 9.957" stroke-width="1.2" stroke="#f00" stroke-miterlimit="10" fill="none"/><path d="M237.23 187.547l5.137 9.957" stroke-width="1.2" stroke="#000" stroke-miterlimit="10" fill="none"/><path d="M228.094 172.09h8v11h-8zm0 0" fill="#fff"/><use xlink:href="#a" x="228.094" y="180.753" fill="#f00"/><path d="M240.148 196.078l-6.054 9.43" stroke-width="1.2" stroke="#000" stroke-miterlimit="10" fill="none"/><path d="M234.094 205.508l-6.055 9.426" stroke-width="1.2" stroke="#f00" stroke-miterlimit="10" fill="none"/><path d="M244.586 198.93l-6.055 9.425" stroke-width="1.2" stroke="#000" stroke-miterlimit="10" fill="none"/><path d="M238.53 208.355l-6.053 9.426" stroke-width="1.2" stroke="#f00" stroke-miterlimit="10" fill="none"/><path d="M242.367 197.504l22.383 1.06" stroke-width="1.2" stroke="#000" stroke-miterlimit="10" fill="none"/><path d="M222.258 210.86h8v11h-8zm0 0" fill="#fff"/><use xlink:href="#a" x="222.258" y="219.522" fill="#f00"/><path d="M142.566 173.352l-10.273-19.915M130.457 192.207l12.11-18.855M132.293 153.438l-22.383-1.06" stroke-width="1.2" stroke="#000" stroke-miterlimit="10" fill="none"/><path d="M132.293 153.438l-6.762-21.723-7.026 3.625zm0 0"/><path d="M109.91 152.38l-10.273-19.915M104.195 152.805l-8.218-15.93M97.8 171.234l12.11-18.855M99.637 132.465l-22.383-1.06M79.598 130.2l-5.137-9.958" stroke-width="1.2" stroke="#000" stroke-miterlimit="10" fill="none"/><path d="M74.46 120.242l-5.136-9.957" stroke-width="1.2" stroke="#f00" stroke-miterlimit="10" fill="none"/><path d="M74.91 132.617l-5.137-9.957" stroke-width="1.2" stroke="#000" stroke-miterlimit="10" fill="none"/><path d="M69.773 122.66l-5.136-9.957" stroke-width="1.2" stroke="#f00" stroke-miterlimit="10" fill="none"/><path d="M77.254 131.406l-6.055 9.426" stroke-width="1.2" stroke="#000" stroke-miterlimit="10" fill="none"/><path d="M71.2 140.832l-6.055 9.43" stroke-width="1.2" stroke="#f00" stroke-miterlimit="10" fill="none"/><path d="M58.98 105.992h8v11h-8zm0 0" fill="#fff"/><use xlink:href="#a" x="58.98" y="114.655" fill="#f00"/><path d="M65.145 150.262l5.136 9.957" stroke-width="1.2" stroke="#f00" stroke-miterlimit="10" fill="none"/><path d="M70.28 160.22l5.138 9.956" stroke-width="1.2" stroke="#000" stroke-miterlimit="10" fill="none"/><path d="M61.145 144.762h8v11h-8zm0 0" fill="#fff"/><use xlink:href="#a" x="61.145" y="153.425" fill="#f00"/><path d="M75.418 170.176l22.383 1.058M75.418 170.176l-12.11 18.85M97.8 171.234l10.274 19.914" stroke-width="1.2" stroke="#000" stroke-miterlimit="10" fill="none"/><path d="M97.8 171.234m-2.034 2.203l.88.563m-2.916 1.64l1.754 1.13m-3.79 1.078l2.634 1.687m-4.668.516l3.508 2.255m-5.543-.05l4.387 2.815m-6.422-.613l5.265 3.383m-7.3-1.18l6.14 3.945m-7.328-2.656l6.653 4.273" stroke="#000" stroke-miterlimit="10" fill="none"/><path d="M108.074 191.148l22.383 1.06M63.31 189.027l8.135 20.88M59.21 193.03l6.51 16.7M40.94 190.313l22.37-1.286M71.445 209.906L62.773 217" stroke-width="1.2" stroke="#000" stroke-miterlimit="10" fill="none"/><path d="M62.773 217l-8.668 7.094M54.105 224.094l-9.43-6.055" stroke-width="1.2" stroke="#f00" stroke-miterlimit="10" fill="none"/><path d="M44.676 218.04l-9.426-6.056" stroke-width="1.2" stroke="#000" stroke-miterlimit="10" fill="none"/><path d="M50.105 218.594h8v11h-8zm0 0" fill="#fff"/><use xlink:href="#a" x="50.105" y="227.257" fill="#f00"/><path d="M35.25 211.984l5.69-21.672M40.918 211.156l4.55-17.336" stroke-width="1.2" stroke="#000" stroke-miterlimit="10" fill="none"/></g></svg>
